src/standard/hand-closed.svg

<svg xmlns="http://www.w3.org/2000/svg" viewBox="0 0 36 36">
  <path d="M27.62 12.71V9.5A3.13 3.13 0 0 0 22 7.64a3.13 3.13 0 0 0-5 0 3.13 3.13 0 0 0-5 0A3.13 3.13 0 0 0 6.38 9.5V20C7 35.43 29 35.41 29.62 20v-3a5.57 5.57 0 0 0-2-4.29ZM24.5 7.62a1.89 1.89 0 0 1 1.88 1.88v2.41a5.6 5.6 0 0 0-2.38-.53h-1.38V9.5a1.89 1.89 0 0 1 1.88-1.88Zm-5 0a1.89 1.89 0 0 1 1.88 1.88v1.88h-3.76V9.5a1.89 1.89 0 0 1 1.88-1.88Zm-5 0a1.89 1.89 0 0 1 1.88 1.88v1.88H16a3.12 3.12 0 0 0 0 6.24h.36a1.87 1.87 0 0 1-3.74-.12v-8a1.89 1.89 0 0 1 1.88-1.88ZM7.62 9.5a1.88 1.88 0 0 1 3.76 0v8a1.88 1.88 0 0 1-3.76 0v-8ZM28.38 20C27.8 33.77 8.19 33.76 7.62 20a3.12 3.12 0 0 0 4.38-.64 3.12 3.12 0 0 0 5.61-1.74h.8a5.63 5.63 0 0 0 5.59 5 .62.62 0 0 0 0-1.24 4.36 4.36 0 0 1-4.31-3.76H21a.62.62 0 0 0 0-1.24h-5a1.88 1.88 0 0 1 0-3.76h8A4.39 4.39 0 0 1 28.38 17Z"/>
</svg>

<svg id="bb43b803-e5a7-4918-9444-e7323d66b7a2" data-name="Icon" xmlns="http://www.w3.org/2000/svg" viewBox="0 0 36 36">
  <title>Closed hand icon - Black</title>
<desc>fist, clenched, unopen, person, arm, gesture, people and audiences</desc>
<metadata><?xpacket begin="﻿" id="W5M0MpCehiHzreSzNTczkc9d"?>
<x:xmpmeta xmlns:x="adobe:ns:meta/" x:xmptk="Adobe XMP Core 8.0-c001 1.000000, 0000/00/00-00:00:00        ">
   <rdf:RDF xmlns:rdf="http://www.w3.org/1999/02/22-rdf-syntax-ns#">
      <rdf:Description rdf:about=""
            xmlns:xmp="http://ns.adobe.com/xap/1.0/"
            xmlns:dc="http://purl.org/dc/elements/1.1/"
            xmlns:cq="http://www.day.com/jcr/cq/1.0"
            xmlns:tiff="http://ns.adobe.com/tiff/1.0/">
         <xmp:rhcc-effective-on>2023-12-08T17:33:54.115Z</xmp:rhcc-effective-on>
         <xmp:rhcc-metadata-complete-moderator>pending</xmp:rhcc-metadata-complete-moderator>
         <xmp:rhcc-translation-id>TRA40e78a08-0d3f-4c25-a3cd-5e6c82058ea3</xmp:rhcc-translation-id>
         <xmp:brand-content-type>Icon</xmp:brand-content-type>
         <xmp:CreateDate>2023-12-08T17:33:54.115Z</xmp:CreateDate>
         <xmp:rhcc-effective-on-set-on-upload>true</xmp:rhcc-effective-on-set-on-upload>
         <xmp:rhcc-metadata-complete-uploader>pending</xmp:rhcc-metadata-complete-uploader>
         <xmp:rhcc-file-last-modified>2023-12-08T17:34:04.942Z</xmp:rhcc-file-last-modified>
         <xmp:rhcc-audience>rhcc-audience:internal</xmp:rhcc-audience>
         <xmp:rhcc-rights-restricted>no</xmp:rhcc-rights-restricted>
         <xmp:brand-content-subtype>Icon</xmp:brand-content-subtype>
         <xmp:rhcc-derivative-id>DER40e78a08-0d3f-4c25-a3cd-5e6c82058ea3</xmp:rhcc-derivative-id>
         <xmp:brand-logo-color>Black</xmp:brand-logo-color>
         <xmp:rhcc-notify-portal-subscribers-on-change>yes</xmp:rhcc-notify-portal-subscribers-on-change>
         <dc:format>image/svg+xml</dc:format>
         <dc:modified>2024-02-09T20:22:30.261Z</dc:modified>
         <dc:title>
            <rdf:Alt>
               <rdf:li xml:lang="x-default">Closed hand icon - Black</rdf:li>
            </rdf:Alt>
         </dc:title>
         <dc:description>
            <rdf:Alt>
               <rdf:li xml:lang="x-default">fist, clenched, unopen, person, arm, gesture, people and audiences</rdf:li>
            </rdf:Alt>
         </dc:description>
         <cq:lastReplicationAction_scene7>Activate</cq:lastReplicationAction_scene7>
         <cq:lastReplicationAction_publish>Activate</cq:lastReplicationAction_publish>
         <cq:lastReplicated_publish>2024-02-09T22:02:06.463Z</cq:lastReplicated_publish>
         <cq:lastReplicatedBy>workflow-process-service</cq:lastReplicatedBy>
         <cq:lastReplicationAction>Activate</cq:lastReplicationAction>
         <cq:lastReplicatedBy_publish>workflow-process-service</cq:lastReplicatedBy_publish>
         <cq:isDelivered>true</cq:isDelivered>
         <cq:lastReplicated>2024-02-09T22:02:06.463Z</cq:lastReplicated>
         <cq:lastReplicatedBy_scene7>workflow-process-service</cq:lastReplicatedBy_scene7>
         <cq:lastReplicated_scene7>2024-02-09T22:02:06.463Z</cq:lastReplicated_scene7>
         <tiff:ImageLength>36</tiff:ImageLength>
         <tiff:ImageWidth>36</tiff:ImageWidth>
      </rdf:Description>
   </rdf:RDF>
</x:xmpmeta>
                                                                                                    
                                                                                                    
                                                                                                    
                                                                                                    
                                                                                                    
                                                                                                    
                                                                                                    
                                                                                                    
                                                                                                    
                                                                                                    
                                 
<?xpacket end="w"?></metadata>
<path d="M27.62,12.71V9.5A3.13,3.13,0,0,0,22,7.64a3.13,3.13,0,0,0-5,0,3.13,3.13,0,0,0-5,0A3.13,3.13,0,0,0,6.38,9.5V20C7,35.43,29,35.41,29.62,20V17A5.57,5.57,0,0,0,27.62,12.71ZM24.5,7.62A1.89,1.89,0,0,1,26.38,9.5v2.41A5.6,5.6,0,0,0,24,11.38H22.62V9.5A1.89,1.89,0,0,1,24.5,7.62Zm-5,0A1.89,1.89,0,0,1,21.38,9.5v1.88H17.62V9.5A1.89,1.89,0,0,1,19.5,7.62Zm-5,0A1.89,1.89,0,0,1,16.38,9.5v1.88H16a3.12,3.12,0,0,0,0,6.24h.36a1.87,1.87,0,0,1-3.74-.12v-8A1.89,1.89,0,0,1,14.5,7.62ZM7.62,9.5a1.88,1.88,0,0,1,3.76,0v8a1.88,1.88,0,0,1-3.76,0v-8ZM28.38,20C27.8,33.77,8.19,33.76,7.62,20v0A3.12,3.12,0,0,0,12,19.36a3.12,3.12,0,0,0,5.61-1.74h.8a5.63,5.63,0,0,0,5.59,5,.62.62,0,0,0,0-1.24,4.36,4.36,0,0,1-4.31-3.76H21a.62.62,0,0,0,0-1.24H16a1.88,1.88,0,0,1,0-3.76h8A4.39,4.39,0,0,1,28.38,17Z"/>
</svg>
